X: 18931
T: Indian Queen, The
R: reel
M: 4/4
K: Dmajor
D2 DE DFAA|BA (3 Bcd A2 Af|eddf eddA|BcdA FD E2|
D2 DE DFAA|BA (3 Bcd A2 Af|eddf eddA|1 Bd c2 dBAF:|2 Bd c2 d3 e||
|:d2 cd efga|d2 cd efga|bagf agfe|cege cABc|
d2 cd efga|d2 cd efga|bagf agfe|cege cAGE:|
D2 DE DFAA|BA (3 Bcd A2 Af|eddf eddA|BcdA FD E2|
D2 DE DFAA|BA (3 Bcd A2 Af|eddf eddA|Bd c2 dBAF||

